X:1
T:Glorious, Beauteous, Golden-Bright
T:Maria C. Tiddeman
T:Glorious, Beauteous, Golden-Bright
T:Public Domain
T:Public Domain
T:Public Domain
C:Maria C. Tiddeman
Z:Public Domain
%%score ( 1 2 ) ( 3 4 )
L:1/8
M:4/4
K:D
V:1 treble 
V:2 treble 
V:3 bass 
V:4 bass 
V:1
 x8 || [DF]3 [DG] | [DA]2 [Fd]2 [Ec]2 ([DB][CA]) | [Dd]4 [Fd]2 (cd) | [Ee]2 (dc) [FB]2 ([Ec][DB]) | %5
w: |1.~Glo- rious,|beau- teous, gold- en- *|bright, Shed- ding *|est, pur- * est light, *|
w: |2.~But the|stars’ sweet gold- en *|gleam Fad- ed *|ly as * a dream *|
w: |~ ~|~ ~ ~ ~ *|~ ~ ~ *|~ ~ * ~ ~ *|
 [CA]4 [DA]2 [E=c]2 | [DB]2 (AG) [DF]2 (DC) | D4 [DF]3 [DF] | [DG]2 [D^G]2 [CA]2 (DE) | %9
w: the stars that|Christ- mas * night, When *|ish shep- herds|Watch be- side their *|
w: the wond- rous|glo- ry- * stream That *|ined all the|When Christ’s an- gels *|
w: ~ ~ ~|~ ~ * ~ ~ *|~ ~ ~|~ ~ ~ ~ *|
 [DA]4 [DB]3 [DB] | [Ec]2 [Dd]2 (dc)(Bc) | [Fd]4 || x8 || [FA]3 [FA] | [Af]2 [Ad]2 [AB]2 [Ge]2 | %15
w: that slept. 3.~Soft|and pure and * ho- *|ry,||Kings and|seers and pro- phets|
w: His birth. 4.~But|that light no * more *|èd,||And its|splen- dor staight- way|
w: ~ ~ 5.~Now|no more on * Christ- *|ght,||Is the|sky with an- gels|
 d2 (c[GB]) [GA]3 [GA] | [FA]3 [FA] [Fd]2 [^Gd]2 | [Ad]2 [Ac]2 [Ge]3 [Gd] | %18
w: hoa- ry, * Shed through-|the sac- red sto-|ry: While the priests,|
w: pal- èd * In His|Whom an- gels hail-|èd; Ev- en as|
w: bri- ght, * But for|er shines the Li-|ght; Ev- en He|
 [Gc]2 [GB]2 [EA]2 [FA]2 | [GA]2 [FA]2 [DF]3 [DF] | [DG]2 [D^G]2 [CA]2 (DE) | [DA]4 [DB]3 [DB] | %22
w: like shep- herds true,|Watched be- side God’s|cho- sen few. * *||
w: the stars of old,|’Mid the bright- ness|lost their gold. 6.~Since *|Light then dark-|
w: Whose birth they told|To the shep- herds|by the fold. * *||
 [Ec]2 [Dd]2 (dc)(Bc) | [Fd]4 || [FA]3 [FA] | [Af]2 [Ad]2 [AB]2 [Ge]2 | d2 (c[GB]) [GA]3 [GA] | %27
w: |||||
w: ens ne- ver, * Let *|with|glad en-|dea- vor, Sing the|song that * e- choes|
w: |||||
 [FA]2 [FA]2 [Fd]2 [^Gd]2 | [Ad]2 [Ac]2 [Ge]3 [Gd] | [Gc]2 [GB]2 [EA]2 [FA]2 | [GA]2 [FA]2 A3 A | %31
w: ||||
w: er: Glo- ry in|the high- est Heav-|en! Peace on earth|to us for- giv-|
w: ||||
 [Dd]2 A2 F2 G2 | B2 A2 [EA]3 [FA] | [GA]2 [FA]2 [EA]2 [DA]2 | [EA]4 [FA]4 |] %35
w: ||||
w: ||||
w: ||||
V:2
 x8 || x4 | x8 | x6 F2 | x2 F2 x4 | x8 | x2 D2 x E2 x | D4 x4 | x6 A2 | x8 | x4 G2 G2 | x4 || x8 || %13
w: |||soft-|Shone||the Jew-|kept|flocks||ly glo-|||
w: |||quick-|’Mid||il- lum-|earth,|sang||a- vail-|||
w: |||~|~||~ ~|~|~||mas ni-|||
 x4 | x8 | G3 x5 | x8 | x8 | x8 | x8 | x6 A2 | x8 | x4 G2 G2 | x4 || x4 | x8 | G3 x5 | x8 | x8 | %29
w: ||out||||||||||||||
w: ||light|||||that||us all,||||ev-|||
w: ||ev-||||||||||||||
 x8 | x4 A3 A | x2 A2 F2 G2 | B2 A2 x4 | x8 | x8 |] %35
w: ||||||
w: |en. *|||||
w: ||||||
V:3
 x8 || [D,A,]3 [E,A,] | [F,A,]2 [D,A,]2 [G,A,]2 [G,A,]2 | [F,A,]4 [B,,B,]2 [F,A,]2 | %4
 [C,A,]2 [F,A,]2 [D,A,]2 [E,^G,]2 | [A,,A,]4 [D,F,]2 [=C,G,]2 | G,2 [B,,G,]2 (A,F,)(A,G,) | %7
 [D,F,]4 [B,,F,]3 [B,,F,] | [B,,D,]2 [B,,E,]2 [A,,E,]2 (F,G,) | [D,F,]4 G,3 [G,B,] | %10
 [G,A,]2 [F,A,]2 [A,E]2 (DE) | [D,D]4 || x8 || [D,D]3 [D,D] | [D,D]2 [F,D]2 [G,D]2 [E,D]2 | %15
 [A,E]3 [B,D] [CE]3 [CE] | D3 D [B,D]2 [B,D]2 | [A,E]2 [A,E]2 [A,C]3 [A,D] | %18
 [A,E]2 [A,D]2 [A,C]2 [D,D]2 | [A,C]2 [D,D]2 [D,A,]3 [B,,D,] | [B,,D,]2 [B,,E,]2 [A,,E,]2 (F,G,) | %21
 [D,F,]4 G,3 [G,B,] | [G,A,]2 [F,A,]2 [A,E]2 (DE) | [D,D]4 || [D,D]3 [D,D] | %25
 [D,D]2 [F,D]2 [G,D]2 [E,E]2 | [A,E]2 [B,D] [CE]3 [CE]2 | D2 D2 [B,D]2 [B,D]2 | %28
 [A,E]2 [A,E]2 [A,C]3 [A,D] | [A,E]2 [A,D]2 [A,C]2 [D,D]2 | [A,C]2 [D,D]2 [A,,A,]3 [A,,A,] | %31
 [D,D]2 [A,,A,]2 [F,,F,]2 [G,,G,]2 | [B,,B,]2 [A,,A,]2 [A,,C]2 [A,,D]2 | %33
 [A,,C]2 [A,,D]2 [A,,C]2 [A,,B,]2 | [A,,C]4 [D,D]4 |] %35
V:4
 x8 || x4 | x8 | x8 | x8 | x8 | G,2 A,,2 A,,2 x2 | x8 | x6 A,,2 | x4 G,3 x | x6 A,,2 | x4 || x8 || %13
 x4 | x8 | x8 | D3 D x4 | x8 | x8 | x8 | x6 A,,2 | x4 G,3 x | x6 A,,2 | x4 || x4 | x8 | x8 | %27
 D2 D2 x4 | x8 | x8 | x8 | x8 | x8 | x8 | x8 |] %35

